X: 3
T: To sen był tylko
C: Bolesław Jan Ćwiklicz
%%abc-version 2.0
%%abcx-abcm2ps-target-version 5.9.1 (29 Sep 2008)
%%abc-creator hum2abc beta
%%abcx-conversion-date 2021/10/04 07:38:41
%%abc-edited-by Tomasz Grochalski
%%abc-edited-by Leszek Kubiak
%%abcx-initial-encoding-date 2021-08-10
%%humdrum-veritas 2193759735
%%humdrum-veritas-data 2210304171
%%linebreak <none>
%%barnumbers 0
L: 1/4
M: C
N: Derived from pl-kozmzk--mzk-m-135_cwiklicz-boleslaw-jan-to-sen-byl-tylko.krn
V: 1 clef=treble
V: 2 clef=treble
V: 3 clef=bass
K: C
[V:1] x4 | 
[V:2] [ECA,][E/B,/^G,/]>[E/A,/][FDA,][EB,G,] | 
[V:3] [A,,A,,,][B,,/B,,,/]>[C,/C,,/][D,D,,][E,E,,] | 
[V:1] x4 | 
[V:2] [DA,][C/A,/]>[D/A,/F,/][E2^G,2E,2] | 
[V:3] [F,F,,][E,/E,,/]>[D,/D,,/][C,C,,][B,,B,,,] | 
[V:1] x4 | 
[V:2] [ECA,E,][E/B,/^G,/]>[E/A,/][FDA,][ECA,] | 
[V:3] [A,,A,,,][B,,/B,,,/]>[C,/C,,/][D,D,,][E,E,,] | 
[V:1] x4 | 
[V:2] [D2A,2][E2B,2^G,2] | 
[V:3] [F,F,,][=G,/=G,,/][F,/F,,/][E,2E,,2] | 
[V:1] EE/>E/FE | 
[V:2] [ECA,][E/B,/^G,/]>[E/A,/][DA,][CA,] | 
[V:3] [E,A,,][E,/B,,/]>[E,/C,/][F,D,][E,A,,] | 
[V:1] A/B/ c/>B/A^G | 
[V:2] [CA,][E/^G,/]>[F/A,/][EA,][EB,] | 
[V:3] [F,F,,][E,/E,,/]>[D,/D,,/][C,C,,][E,E,,] | 
[V:1] AD/E/=GF/E/ | 
[V:2] A/G/[FDA,][GDG,][GCG,] & [EA,]x3 | 
[V:3] [C,C,,][D,D,,][B,,B,,,][C,C,,] | 
[V:1] ^GA/B/dc/e/ | 
[V:2] [EB,^G,][EA,][FDA,][ECA,] | 
[V:3] [D,D,,][C,C,,][D,D,,][E,E,,] | 
[V:1] f/g/ag/f/e/d/ | 
[V:2] [FDA,]>>[FDA,][F2D2A,2] | 
[V:3] [D,D,,]>>[D,D,,][D,2D,,2] | 
[V:1] g>feA/B/ | 
[V:2] [G/D/G,/]>[G/D/G,/][GDG,][ECG,]C/D/ & x3A, | 
[V:3] [B,,/B,,,/]>[B,,/B,,,/][B,,B,,,][C,C,,][F,F,,] | 
[V:1] ^c/d/ ^f/=f/ e/^G/ A/c/ | 
[V:2] [E^CA,]z[EB,^G,]z | 
[V:3] [E,E,,]z[E,E,,]z | 
[V:1] B2Az | 
[V:2] z[E/D/G,/]>[E/D/G,/][E^CA,]!arpeggio!=F3//E// & x3!arpeggio![B,G,] | 
[V:3] z[E,/E,,/]>[E,/E,,/][E,A,,]!arpeggio![D,A,,A,,,] | 
[V:1] z4 | 
[V:2] [E^CA,]!arpeggio!F/>E/[ECA,]!arpeggio!F3//E// & x!arpeggio![B,^G,]x!arpeggio![B,G,] | 
[V:3] [E,A,,]!arpeggio![D,A,,A,,,][E,A,,]!arpeggio![D,A,,A,,,] | 
[V:1] z4 | 
[V:2] [E^CA,][E/B,/^G,/]>[E/A,/][=FDA,][ECA,] | 
[V:3] [E,A,,][E,/B,,/]>[E,/^C,/]D,E, | 
[V:1] z4 ||  
[V:2] [DB,A,][E/B,/^G,/]>[F/B,/A,/][E^CA,]z ||  
[V:3] =F,E,/>D,/[E,A,,]z ||  
[V:1] z/ A/c/A/G/F/z | 
[V:2] [F=CA,]zz[AFC] | 
[V:3] [F,F,,]zz[F,F,,] | 
[V:1] dc/_B//A//cF | 
[V:2] [_B2F2D2][A2F2C2] | 
[V:3] [_B,2_B,,2][F,2F,,2] | 
[V:1] A/E//F// G/G/ A/G/ F/^C/ | 
[V:2] [A2G2^C2][AFD][dAF] | 
[V:3] [E,2E,,2][D,2D,,2] | 
[V:1] EDzz | 
[V:2] [e^cG][dF][cA_E][_BD] | 
[V:3] [A,,A,,,][_B,,_B,,,][A,,A,,,][B,,B,,,] | 
[V:1] z4 | 
[V:2] [CA,F,][C/G,/E,/]>[C/F,/][D_B,F,][CA,F,] | 
[V:3] F,,=G,,/>A,,/B,,C, | 
[V:1] z4 | 
[V:2] [=B,_A,F,][C/A,/F,/]>[D/A,/F,/][ECG,][CG,] | 
[V:3] D,C,/>=B,,/C,E, | 
[V:1] z4 | 
[V:2] [C_A,F,][C/G,/E,/]>[C/F,/][_DB,F,][CA,F,] | 
[V:3] F,,G,,/>A,,/_B,,C, | 
[V:1] z4 | 
[V:2] [=B,_A,F,][C/A,/F,/]>[=D/A,/F,/][E2C2G,2] | 
[V:3] =D,C,/>=B,,/C,2 | 
[V:1] z/ D/G2F | 
[V:2] [G2D2=B,2]z2 | 
[V:3] [G,2G,,2]z2 | 
[V:1] z4 | 
[V:2] zc'/d'/ _e'/d'/ c'/_a/ | 
[V:3] C,[_ECG,]F,,[FC_A,] | 
[V:1] z4 | 
[V:2] g/_e/ c/=B/_AG | 
[V:3] G,,[_ECG,]G,,[F=B,G,] | 
[V:1] z4 | 
[V:2] zc'/d'/ _e'/d'/ c'/_a/ | 
[V:3] C,/D,/ _E/F/F,,A/F/ & x[CG,]x[C_A,] | 
[V:1] z4 | 
[V:2] g/_e/ c/=B/_AG | 
[V:3] G,,_E/G/F,,A/F/ & x[CG,]x[=B,G,] | 
[V:1] z4 | 
[V:2] [G_EC][G/D/=B,/]>[G/C/][_AFC][GDB,] | 
[V:3] [C,C,,][D,/D,,/]>[_E,/_E,,/][F,F,,][G,G,,] | 
[V:1] z_E/>F/GG | 
[V:2] [FC][_E/C/]>[F/C/_A,/][G2=B,2G,2] | 
[V:3] [_A,_A,,][G,/G,,/]>[F,/F,,/][_E,_E,,][D,D,,] | 
[V:1] G>Gcc | 
[V:2] [G_ECG,][G/D/=B,/]>[G/C/][_AFC][GEC] | 
[V:3] [C,C,,][D,/D,,/]>[_E,/_E,,/][F,F,,][G,G,,] | 
[V:1] z4 | 
[V:2] [F2C2][G2D2=B,2] | 
[V:3] [_A,_A,,][_B,/_B,,/][A,/A,,/][G,G,,][F,F,,] | 
[V:1] z/ ^G/ B/G/ ^F/E/z | 
[V:2] [^GEB,]z[GEB,][AEA,] | 
[V:3] [E,E,,]z[D,D,,][^C,^C,,] | 
[V:1] =F/G/AG3/F/ | 
[V:2] [F/8D/8B,/8]A,/8[F/8D/8B,/8]A,/8[F/8D/8B,/8]A,/8[F/8D/8B,/8]A,/8[F/8D/8B,/8]A,/8[F/8D/8B,/8]A,/8[F/8D/8B,/8]A,/8[F/8D/8B,/8]A,/8 [F/8D/8B,/8]A,/8[F/8D/8B,/8]A,/8[F/8D/8B,/8]A,/8[F/8D/8B,/8]A,/8[F/8D/8B,/8]A,/8[F/8D/8B,/8]A,/8[F/8D/8B,/8]A,/8[F/8D/8B,/8]A,/8 | 
[V:3] D,,/8D,/8D,,/8D,/8D,,/8D,/8D,,/8D,/8D,,/8D,/8D,,/8D,/8D,,/8D,/8D,,/8D,/8 D,,/8D,/8D,,/8D,/8D,,/8D,/8D,,/8D,/8D,,/8D,/8D,,/8D,/8D,,/8D,/8D,,/8D,/8 | 
[V:1] EE/ z/z2 | 
[V:2] [E^CA,][E/B,/^G,/]>[E/A,/][FDA,][ECA,] | 
[V:3] z4 | 
[V:1] !fermata!z4 |]  
[V:2] !arpeggio!F/>E/[E^CA,]!arpeggio!F/>E/[ECA,] & !arpeggio![B,^G,]x!arpeggio![B,G,]x |]  
[V:3] !arpeggio![D,A,,A,,,][E,A,,]!arpeggio![D,A,,A,,,][E,A,,] |]  


